core/solid/computer-devices/google-drive.svg

<svg xmlns="http://www.w3.org/2000/svg" fill="none" viewBox="0 0 14 14" id="Google-Drive--Streamline-Core">
  <desc>
    Google Drive Streamline Icon: https://streamlinehq.com
  </desc>
  <g id="google-drive">
    <path id="Subtract" fill="#000000" fill-rule="evenodd" d="M4.15422 1.92019 0.110107 9.10972 1.95463 12.061 3.6332 9.07683c0.01278 -0.02618 0.02704 -0.0515 0.04267 -0.07586l2.32287 -4.12954 -1.84452 -2.95124ZM7.5405 4.50805c-0.01992 -0.03918 -0.04334 -0.07675 -0.07012 -0.11218L5.45615 1.1731h4.0787l4.20885 7.48236h-3.6111L7.5405 4.50805Zm-0.63596 1.81266 -1.3133 2.33475h2.77252L6.90454 6.32071ZM4.74749 10.1555 3.10355 13.078H11.519l1.8266 -2.9225H4.74749Z" clip-rule="evenodd" stroke-width="1"></path>
  </g>
</svg>

<svg xmlns="http://www.w3.org/2000/svg" fill="none" viewBox="0 0 14 14"><g id="google-drive"><path id="Subtract" fill="#3e3e3e" fill-rule="evenodd" d="M4.154 1.92.11 9.11l1.845 2.951 1.678-2.984A.749.749 0 0 1 3.676 9l2.323-4.13-1.845-2.95ZM7.54 4.508a.749.749 0 0 0-.07-.112L5.456 1.173h4.079l4.209 7.482h-3.611L7.54 4.508Zm-.635 1.813L5.59 8.655h2.773l-1.46-2.334Zm-2.158 3.835-1.643 2.922h8.415l1.827-2.922H4.747Z" clip-rule="evenodd"></path></g></svg>
